X:1
T:Lord Ramsey's Reel
M:C
L:1/8
Q:80
C:Arr. by T. Tully
S:Reel
K:HP
[| {gAGAG}A2{gcd}ce{g}fe{gcd}ce|
ae{gcd}ce{g}fe{gcd}ce|
{gAGAG}A2{gcd}ce{g}fe{gcd}ce|  !
d{e}d{c}dB{g}c{d}c{e}cB{gAGAG}A2{gcd}ce{g}fe{gcd}ce|
ae{gcd}ce{g}fe{gcd}ce|
d{e}d{c}dB{g}c{d}c{e}cA|  !
{g}BA{gAGAG}A2{g}Bc{gde}dB|] [|
{gAGAG}A2{gcd}ceae{gcd}ce|
{g}fe{gcd}ceae{gcd}ce|  !
{gAGAG}A2{gcd}ceae{gcd}ce|
d{e}d{c}dB{g}c{d}c{e}cB{gAGAG}A2{gcd}ceae{gcd}ce|
{g}fe{gcd}ceae{gcd}ce|  !
d{e}d{c}dB{g}c{d}c{e}cA|
{g}BA{gAGAG}A2{g}Bc{gde}dB|]

